Adwaita++/actions/symbolic/view-right-pane-symbolic.svg

<svg height="16" viewBox="0 0 16 16" width="16" xmlns="http://www.w3.org/2000/svg">
  <path d="m1 15h2 10 2v-2-10-2h-2-10-2v2 10zm8-2v-1.003906-8-.996094h.9804688c.0068905-.000139.0126062-.003906.0195312-.003906h2c.0069 0 .01264.0038.01953.0039h.98047v.9961 8 1.003906z" fill="#474747"/>
</svg>

<svg xmlns="http://www.w3.org/2000/svg" width="16" height="16" version="1.1" viewBox="0 0 16 16">
 <path style="fill:#474747" d="m 1,15 h 2 10 2 V 13 3 1 H 13 3 1 v 2 10 z m 8,-2 v -1.003906 -8 V 3 H 9.9804688 C 9.9873593,2.999861 9.993075,2.996094 10,2.996094 h 2 c 0.0069,0 0.01264,0.0038 0.01953,0.0039 H 13 v 0.9961 8 V 13 Z"/>
</svg>
